X: 20701
T: Longolil
%R: air, waltz, jig
B: James Oswald "The Caledonian Pocket Companion" v.2 p.70 #1
Z: 2019 John Chambers <jc:trillian.mit.edu>
M: 6/8
L: 1/8
K: A
|:"_Slow"\
A3 c3 | BAB cAF | EFA A2f | edc TB2A :|\
|:\
cde ef=g | fed cBA | cde ef=g | f=ge a3 |
Ace agf | edc TB2A | AEA AEA | Adc TB2A \
::\
a3 Tf3 | ecA cAE | F2A E2f | edc TB2A :|
|:\
(c/d/e)e (e/f/=g)g | fdf ecA | (c/d/e)e (e/f/=g)g | f/^g/aa a3 |\
ace (f/g/a)f | ecA TBAF | A2E A2E | Adc TB2A :|
